X:730
T: Garry Castle
S: B.Breathnach:"Ceol Rince na hEireann" IV/31
Z: B.Black
L: 1/8
M: 9/8
R: slipjig
K: G
GBG AGE EDD|GBG AGE c2A|BAG AGE EDE|GED DEF G3 :|
GAG GAB dBG|ABA ABd e2g|GAG GAB dBA|GED DEF G3 |
GAG GAB dBG|ABA ABd e2f|gag gfe dBA|GED DEF G3 ||
